!!!!SEGMENT: pl-wtm--r-240-m_moniuszko-stanislaw--przepioreczka.krn
!!!id: 18xx:1646
!!!COM: Moniuszko, Stanisław
!!!COM-rism: pe30008351
!!!CDT: 1819/05/05-1872/06/04
!!!CNT: Polish
!!!OTL: Przepióreczka
!!!PDT:
!!!SMS-siglum: PL-Wtm
!!!SMS-shelfmark: R 240/M
!!!NIFC-rismID: 1001063775
!!!URL-scan: http://repozytorium.nifc.pl/skany/pl-wtm-nut--r229m
!!!ONB-nifc:
!!!SMS-variant:
!!!SMS-altvar:
**kern	**kern	**dynam	**kern	**text	**text
*part2	*part2	*	*part1	*part1	*part1
*staff3	*staff2	*	*staff1	*staff1	*staff1
*clefF4	*clefG2	*	*clefG2	*	*
*k[f#c#g#]	*k[f#c#g#]	*	*k[f#c#g#]	*	*
*A:	*A:	*	*A:	*	*
*>[A,A,B,B,C,C,D]	*>[A,A,B,B,C,C,D]	*	*>[A,A,B,B,C,C,D]	*	*
=1	=1	=1	=1	=1	=1
*>A	*>A	*	*>A	*	*
!	!	!	!LO:TX:a:t=P:problem:w źródle brak początku utworu	!	!
.	.	.	8qa/	.	.
(4G#\	8r	.	16.g#/	w sno-	biè-
.	.	.	32f#/	-pki	-dę
.	8bL 8e 8d/	.	8g#/	wią-	wsze-
8E\)	8bJ 8e 8d/	.	8e/	-zać	-lką
=2	=2	=2	=2	=2	=2
4.A\	8r	.	16a\	do	wy-
.	.	.	16b\	wsi	-sko-
.	8cc#L 8e 8c#/	.	4cc#^^\	wieźć,	-czém'
.	8cc#J 8e 8c#/	.	.	.	.
=3	=3	=3	=3	=3	=3
4.A#X\	8r	.	16.cc#\	do	wy-
.	.	.	32dd\	wsi	-sko-
.	8cc#L 8f# 8e/	.	4ee^^\	wieźć,	-czém'
.	8cc#J 8f# 8e/	.	.	.	.
=4	=4	=4	=4	=4	=4
4.B\	8r	.	16dd#X\	bę-	i
.	.	.	16cc#\	-dą	na
.	8bL 8f# 8d#X/	.	8b\	mie-	wierz-
.	8bJ 8f# 8d#/	.	8a\	-li	-bie
=5	=5	=5	=5	=5	=5
.	.	.	8qa/	.	.
4.E\	8r	.	16g#/	do-	nad
.	.	.	16f#/	-brzy	gro-
.	8bL 8g# 8e/	.	8g#/	lu-	-bel-
.	8g#J 8e 8B/	.	8e/	-dzie	-ką
!!LO:LB:g=original
=6	=6	=6	=6	=6	=6
8BB'\	8a 8f# 8d#X 8B'/	.	16f#/	chle-	po-
.	.	.	16g#/	-ba	-wie-
4E^^\	4g# 4e 4B^^/	.	4e^^/	jeść,	-siém'
=7	=7	=7	=7	=7	=7
8A 8BB'\	8f# 8d#X 8B/	.	16f#/	chle-	po-
.	.	.	16g#/	-ba	-wie-
[4G# [>4E^^\	4e 4B;/	.	4e;/	jeść.	-siém'.
=8	=8	=8	=8	=8	=8
.	8qd#X/	.	.	.	.
!	!	!	!LO:N:vis=1	!	!
8G#] 8E\]	8e'/L	.	4.r	.	.
8r	8e'/	.	.	.	.
(8c#\	8e/J	.	.	.	.
=9	=9	=9	=9	=9	=9
!	!	!	!LO:N:vis=1	!	!
8A\L)	8eL 8c#'/	.	4.r	.	.
8E'\	8e 8c# 8A'/	.	.	.	.
8C#'>\J	8eJ 8c# 8A 8E</	.	.	.	.
=10:|!|:	=10:|!|:	=10:|!|:	=10:|!|:	=10:|!|:	=10:|!|:
*>B	*>B	*	*>B	*	*
!	!	!LO:HP:a	!	!	!
8EL 8AA/	(16.c#LL 16.A/	>	16.A/	Wi-	a
.	32BJJk 32G#/)	]	32B/	-si	co?
8E 8AA/	8c#L 8A/	.	8c#/	bié-	Moś-
8EJ 8AA/	8dJ 8B/	.	8d'/	-da,	-cia
=11	=11	=11	=11	=11	=11
8qF#/	.	.	.	.	.
*^	*	*	*	*	*
16.E/LL	8AA\L	(>4e 4c#/	.	4e/	wi-	pan-
32D#X/JJk	.	.	.	.	.	.
(4E/	8AA\	.	.	.	.	.
.	8AA\J	8a 8c#/)	.	8a/	-si,	-no
*v	*v	*	*	*	*	*
!!LO:LB:g=original
=12	=12	=12	=12	=12	=12
*tremolo	*	*	*	*	*
8E 8D 8AA/L)	16g#LL 16e/	.	16.g#/	z zim-	do-
.	32r	.	.	.	.
.	32aJJk 32f#/	.	32a/	-na	-brze
8E 8D 8AA/	4b 4g#^^\	.	4b^^\	drży,	ci?
8E 8D 8AA/J	.	.	.	.	.
*Xtremolo	*	*	*	*	*
=13	=13	=13	=13	=13	=13
8EL 8C# 8AA/	16cc#LL 16a\	.	16.cc#\	z zim-	do-
.	32r	.	.	.	.
.	32ddJJk 32b\	.	32dd\	-na	-brze
8A 8AA/	4ee 4cc#^^\	.	4ee^^\	drży,	ci?
8AJ 8AA/	.	.	.	.	.
=14:|!|:	=14:|!|:	=14:|!|:	=14:|!|:	=14:|!|:	=14:|!|:
*>C	*>C	*	*>C	*	*
*^	*	*	*	*	*
(<4F#/	4.BB\	8r	.	16dd\	nie	nie
.	.	.	.	16cc#\	by-	by-
.	.	8f#:L 8d: 8B:/	.	8.b\	-ło	-ło
8A/)	.	8b:J 8f#: 8d:/	.	.	.	.
.	.	.	.	16a\	po	to
=15	=15	=15	=15	=15	=15	=15
.	.	.	.	8qa/	.	.
(<4G#/	4.E\	8r	.	16g#/	lu-	chło-
.	.	.	.	16f#/	-dziach	-dzić,
.	.	8bL 8e 8d/	.	8g#/	cho-	gło-
8B/)	.	8eJ 8d/	.	8e/	-dzić,	-dzić.
*v	*v	*	*	*	*	*
=16:|!	=16:|!	=16:|!	=16:|!	=16:|!	=16:|!
*>D	*>D	*	*>D	*	*
*M2/4	*M2/4	*	*M2/4	*	*
(4A\	(4a\	.	4a\	Maż-	.
8c#\L	8cc#\L	.	8cc#\	-ci	.
8d\J	8dd\J	.	8dd\	za	.
=17	=17	=17	=17	=17	=17
4e\	4ee\	.	4ee\	swo-	.
8c#\L	8cc#\L	.	8cc#\	-je,	.
8A\J)	8a\J)	.	8a\	wiś	.
!!LO:LB:g=original
=18	=18	=18	=18	=18	=18
4G# 4E\	4b 4d/	.	4b\	so-	.
8F#L 8E\	8aL 8d/	.	8e/	-bie,	.
8G#J 8E\	8bJ 8d/	.	8b\	wiś	.
=19	=19	=19	=19	=19	=19
4.A\	(4cc# 4c#/	.	4.cc#\	so-	.
.	8aa\)	.	.	.	.
8r	8r	.	8a\	-bie!	.
=20	=20	=20	=20	=20	=20
8qAA/	.	.	.	.	.
(8A\L	(8a\L	.	8a\	nie	.
8c#\	8cc#\	.	8cc#\	bę-	.
8d#X\	8dd#X\	.	8dd#X\	-dzie-	.
8f#\J	8ff#\J	.	8ff#\	-my	.
=21	=21	=21	=21	=21	=21
8.e\L	8.ee\L	.	8.ee\L	pła-	.
16d\Jk	16dd\Jk	.	16dd\Jk	.	.
!LO:TUP:a	!LO:TUP:a	!	!LO:TX:t=P:problem:skreślona belka	!	!
12c#\L	12cc#\L	.	12cc#\L	-kać	.
12B\	12b\	.	12b\J	.	.
12A\J)	12a\J	.	12a\	po	.
=22	=22	=22	=22	=22	=22
*	*	*	*2\right	*	*
!	!LO:TX:b:i:t=ralent.	!	!	!	!
4G# 4E^^\	4b 4d^/)	.	2b\	to-	.
8G#L 8E'\	8eL 8d'/	.	.	.	.
8G#J 8E'\	8bJ 8d'/	.	.	.	.
=23	=23	=23	=23	=23	=23
*2\right	*	*	*	*	*
2A 2E 2AA;\	2a 2c#;/	.	4a/	-bie.	.
.	.	.	4r	.	.
==	==	==	==	==	==
*-	*-	*-	*-	*-	*-
!!!system-decoration: {<s1>(s2,s3)}
!!!RDF**kern: > = above
!!!RDF**kern: < = below
!!!ENC: Marta Lawrence
!!!END: 2021-04-15
!!!ENC: Mateusz Solarz
!!!END: 2021-03-30
